images/3235452.svg

<?xml version="1.0" encoding="UTF-8"?>
<svg xmlns="http://www.w3.org/2000/svg" xmlns:xlink="http://www.w3.org/1999/xlink" width="300pt" height="300pt" viewBox="0 0 300 300" version="1.1">
<defs>
<g>
<symbol overflow="visible" id="glyph0-0">
<path style="stroke:none;" d="M 0.453125 1.59375 L 0.453125 -6.34375 L 4.953125 -6.34375 L 4.953125 1.59375 Z M 0.953125 1.09375 L 4.453125 1.09375 L 4.453125 -5.84375 L 0.953125 -5.84375 Z M 0.953125 1.09375 "/>
</symbol>
<symbol overflow="visible" id="glyph0-1">
<path style="stroke:none;" d="M 0.890625 -6.5625 L 2.078125 -6.5625 L 4.984375 -1.078125 L 4.984375 -6.5625 L 5.84375 -6.5625 L 5.84375 0 L 4.65625 0 L 1.75 -5.484375 L 1.75 0 L 0.890625 0 Z M 0.890625 -6.5625 "/>
</symbol>
<symbol overflow="visible" id="glyph0-2">
<path style="stroke:none;" d="M 3.546875 -5.953125 C 2.898438 -5.953125 2.382812 -5.710938 2 -5.234375 C 1.625 -4.753906 1.4375 -4.101562 1.4375 -3.28125 C 1.4375 -2.445312 1.625 -1.789062 2 -1.3125 C 2.382812 -0.832031 2.898438 -0.59375 3.546875 -0.59375 C 4.191406 -0.59375 4.703125 -0.832031 5.078125 -1.3125 C 5.453125 -1.789062 5.640625 -2.445312 5.640625 -3.28125 C 5.640625 -4.101562 5.453125 -4.753906 5.078125 -5.234375 C 4.703125 -5.710938 4.191406 -5.953125 3.546875 -5.953125 Z M 3.546875 -6.6875 C 4.460938 -6.6875 5.195312 -6.375 5.75 -5.75 C 6.300781 -5.132812 6.578125 -4.3125 6.578125 -3.28125 C 6.578125 -2.238281 6.300781 -1.410156 5.75 -0.796875 C 5.195312 -0.179688 4.460938 0.125 3.546875 0.125 C 2.617188 0.125 1.878906 -0.179688 1.328125 -0.796875 C 0.773438 -1.410156 0.5 -2.238281 0.5 -3.28125 C 0.5 -4.3125 0.773438 -5.132812 1.328125 -5.75 C 1.878906 -6.375 2.617188 -6.6875 3.546875 -6.6875 Z M 3.546875 -6.6875 "/>
</symbol>
</g>
</defs>
<g id="surface52529">
<rect x="0" y="0" width="300" height="300" style="fill:rgb(100%,100%,100%);fill-opacity:1;stroke:none;"/>
<path style="fill:none;stroke-width:1.2;stroke-linecap:butt;stroke-linejoin:miter;stroke:rgb(0%,0%,0%);stroke-opacity:1;stroke-miterlimit:10;" d="M 138.429688 186.136719 L 133.5 176.9375 "/>
<path style="fill:none;stroke-width:1.2;stroke-linecap:butt;stroke-linejoin:miter;stroke:rgb(0%,0%,100%);stroke-opacity:1;stroke-miterlimit:10;" d="M 133.5 176.9375 L 128.566406 167.742188 "/>
<path style="fill:none;stroke-width:1.2;stroke-linecap:butt;stroke-linejoin:miter;stroke:rgb(0%,0%,100%);stroke-opacity:1;stroke-miterlimit:10;" d="M 128.566406 167.742188 L 134.066406 158.871094 "/>
<path style="fill:none;stroke-width:1.2;stroke-linecap:butt;stroke-linejoin:miter;stroke:rgb(0%,0%,0%);stroke-opacity:1;stroke-miterlimit:10;" d="M 134.066406 158.871094 L 139.566406 150 "/>
<path style="fill:none;stroke-width:1.2;stroke-linecap:butt;stroke-linejoin:miter;stroke:rgb(0%,0%,0%);stroke-opacity:1;stroke-miterlimit:10;" d="M 107.703125 167.085938 L 118.136719 167.414062 "/>
<path style="fill:none;stroke-width:1.2;stroke-linecap:butt;stroke-linejoin:miter;stroke:rgb(0%,0%,100%);stroke-opacity:1;stroke-miterlimit:10;" d="M 118.136719 167.414062 L 128.566406 167.742188 "/>
<path style=" stroke:none;fill-rule:nonzero;fill:rgb(100%,100%,100%);fill-opacity:1;" d="M 125.566406 162.242188 L 132.566406 162.242188 L 132.566406 173.242188 L 125.566406 173.242188 Z M 125.566406 162.242188 "/>
<g style="fill:rgb(0%,0%,100%);fill-opacity:1;">
  <use xlink:href="#glyph0-1" x="125.566406" y="170.905273"/>
</g>
<path style="fill:none;stroke-width:1.2;stroke-linecap:butt;stroke-linejoin:miter;stroke:rgb(0%,0%,0%);stroke-opacity:1;stroke-miterlimit:10;" d="M 139.566406 150 L 150 150.328125 "/>
<path style="fill:none;stroke-width:1.2;stroke-linecap:butt;stroke-linejoin:miter;stroke:rgb(0%,0%,100%);stroke-opacity:1;stroke-miterlimit:10;" d="M 150 150.328125 L 160.433594 150.65625 "/>
<path style="fill:none;stroke-width:1.2;stroke-linecap:butt;stroke-linejoin:miter;stroke:rgb(0%,0%,0%);stroke-opacity:1;stroke-miterlimit:10;" d="M 141.808594 145.15625 L 150.15625 145.417969 "/>
<path style="fill:none;stroke-width:1.2;stroke-linecap:butt;stroke-linejoin:miter;stroke:rgb(0%,0%,100%);stroke-opacity:1;stroke-miterlimit:10;" d="M 150.15625 145.417969 L 158.5 145.679688 "/>
<path style="fill:none;stroke-width:1.2;stroke-linecap:butt;stroke-linejoin:miter;stroke:rgb(0%,0%,0%);stroke-opacity:1;stroke-miterlimit:10;" d="M 129.703125 131.601562 L 139.566406 150 "/>
<path style="fill:none;stroke-width:1.2;stroke-linecap:butt;stroke-linejoin:miter;stroke:rgb(0%,0%,100%);stroke-opacity:1;stroke-miterlimit:10;" d="M 160.433594 150.65625 L 165.933594 141.785156 "/>
<path style="fill:none;stroke-width:1.2;stroke-linecap:butt;stroke-linejoin:miter;stroke:rgb(0%,0%,0%);stroke-opacity:1;stroke-miterlimit:10;" d="M 165.933594 141.785156 L 171.433594 132.914062 "/>
<path style=" stroke:none;fill-rule:nonzero;fill:rgb(100%,100%,100%);fill-opacity:1;" d="M 157.433594 145.15625 L 164.433594 145.15625 L 164.433594 156.15625 L 157.433594 156.15625 Z M 157.433594 145.15625 "/>
<g style="fill:rgb(0%,0%,100%);fill-opacity:1;">
  <use xlink:href="#glyph0-1" x="157.433594" y="153.819336"/>
</g>
<path style="fill:none;stroke-width:1.2;stroke-linecap:butt;stroke-linejoin:miter;stroke:rgb(0%,0%,0%);stroke-opacity:1;stroke-miterlimit:10;" d="M 171.433594 132.914062 L 166.5 123.71875 "/>
<path style="fill:none;stroke-width:1.2;stroke-linecap:butt;stroke-linejoin:miter;stroke:rgb(0%,0%,100%);stroke-opacity:1;stroke-miterlimit:10;" d="M 166.5 123.71875 L 161.570312 114.519531 "/>
<path style="fill:none;stroke-width:1.2;stroke-linecap:butt;stroke-linejoin:miter;stroke:rgb(0%,0%,0%);stroke-opacity:1;stroke-miterlimit:10;" d="M 166.117188 133.398438 L 162.171875 126.039062 "/>
<path style="fill:none;stroke-width:1.2;stroke-linecap:butt;stroke-linejoin:miter;stroke:rgb(0%,0%,100%);stroke-opacity:1;stroke-miterlimit:10;" d="M 162.171875 126.039062 L 158.226562 118.679688 "/>
<path style="fill:none;stroke-width:1.2;stroke-linecap:butt;stroke-linejoin:miter;stroke:rgb(0%,0%,0%);stroke-opacity:1;stroke-miterlimit:10;" d="M 171.433594 132.914062 L 181.863281 133.242188 "/>
<path style="fill:none;stroke-width:1.2;stroke-linecap:butt;stroke-linejoin:miter;stroke:rgb(100%,0%,0%);stroke-opacity:1;stroke-miterlimit:10;" d="M 181.863281 133.242188 L 192.296875 133.574219 "/>
<path style="fill:none;stroke-width:1.2;stroke-linecap:butt;stroke-linejoin:miter;stroke:rgb(0%,0%,100%);stroke-opacity:1;stroke-miterlimit:10;" d="M 161.570312 114.519531 L 151.136719 114.191406 "/>
<path style="fill:none;stroke-width:1.2;stroke-linecap:butt;stroke-linejoin:miter;stroke:rgb(0%,0%,0%);stroke-opacity:1;stroke-miterlimit:10;" d="M 151.136719 114.191406 L 140.703125 113.863281 "/>
<path style=" stroke:none;fill-rule:nonzero;fill:rgb(100%,100%,100%);fill-opacity:1;" d="M 158.570312 109.019531 L 165.570312 109.019531 L 165.570312 120.019531 L 158.570312 120.019531 Z M 158.570312 109.019531 "/>
<g style="fill:rgb(0%,0%,100%);fill-opacity:1;">
  <use xlink:href="#glyph0-1" x="158.570312" y="117.682617"/>
</g>
<path style="fill:none;stroke-width:1.2;stroke-linecap:butt;stroke-linejoin:miter;stroke:rgb(0%,0%,0%);stroke-opacity:1;stroke-miterlimit:10;" d="M 140.703125 113.863281 L 129.703125 131.601562 "/>
<path style="fill:none;stroke-width:1.2;stroke-linecap:butt;stroke-linejoin:miter;stroke:rgb(0%,0%,0%);stroke-opacity:1;stroke-miterlimit:10;" d="M 143.777344 118.226562 L 134.980469 132.417969 "/>
<path style="fill:none;stroke-width:1.2;stroke-linecap:butt;stroke-linejoin:miter;stroke:rgb(0%,0%,0%);stroke-opacity:1;stroke-miterlimit:10;" d="M 129.703125 131.601562 L 119.273438 131.273438 "/>
<path style="fill:none;stroke-width:1.2;stroke-linecap:butt;stroke-linejoin:miter;stroke:rgb(0%,0%,100%);stroke-opacity:1;stroke-miterlimit:10;" d="M 119.273438 131.273438 L 108.839844 130.945312 "/>
<path style="fill:none;stroke-width:1.2;stroke-linecap:butt;stroke-linejoin:miter;stroke:rgb(0%,0%,100%);stroke-opacity:1;stroke-miterlimit:10;" d="M 108.839844 130.945312 L 103.339844 139.816406 "/>
<path style="fill:none;stroke-width:1.2;stroke-linecap:butt;stroke-linejoin:miter;stroke:rgb(0%,0%,0%);stroke-opacity:1;stroke-miterlimit:10;" d="M 103.339844 139.816406 L 97.839844 148.6875 "/>
<path style="fill:none;stroke-width:1.2;stroke-linecap:butt;stroke-linejoin:miter;stroke:rgb(0%,0%,100%);stroke-opacity:1;stroke-miterlimit:10;" d="M 111.914062 135.308594 L 107.515625 142.40625 "/>
<path style="fill:none;stroke-width:1.2;stroke-linecap:butt;stroke-linejoin:miter;stroke:rgb(0%,0%,0%);stroke-opacity:1;stroke-miterlimit:10;" d="M 107.515625 142.40625 L 103.113281 149.5 "/>
<path style=" stroke:none;fill-rule:nonzero;fill:rgb(100%,100%,100%);fill-opacity:1;" d="M 105.839844 125.445312 L 112.839844 125.445312 L 112.839844 136.445312 L 105.839844 136.445312 Z M 105.839844 125.445312 "/>
<g style="fill:rgb(0%,0%,100%);fill-opacity:1;">
  <use xlink:href="#glyph0-1" x="105.839844" y="134.108398"/>
</g>
<path style="fill:none;stroke-width:1.2;stroke-linecap:butt;stroke-linejoin:miter;stroke:rgb(0%,0%,0%);stroke-opacity:1;stroke-miterlimit:10;" d="M 97.839844 148.6875 L 107.703125 167.085938 "/>
<path style="fill:none;stroke-width:1.2;stroke-linecap:butt;stroke-linejoin:miter;stroke:rgb(0%,0%,0%);stroke-opacity:1;stroke-miterlimit:10;" d="M 97.839844 148.6875 L 76.976562 148.03125 "/>
<path style="fill:none;stroke-width:1.2;stroke-linecap:butt;stroke-linejoin:miter;stroke:rgb(0%,0%,0%);stroke-opacity:1;stroke-miterlimit:10;" d="M 105.617188 165.789062 L 100.117188 174.660156 "/>
<path style="fill:none;stroke-width:1.2;stroke-linecap:butt;stroke-linejoin:miter;stroke:rgb(100%,0%,0%);stroke-opacity:1;stroke-miterlimit:10;" d="M 100.117188 174.660156 L 94.617188 183.53125 "/>
<path style="fill:none;stroke-width:1.2;stroke-linecap:butt;stroke-linejoin:miter;stroke:rgb(0%,0%,0%);stroke-opacity:1;stroke-miterlimit:10;" d="M 109.792969 168.378906 L 104.292969 177.25 "/>
<path style="fill:none;stroke-width:1.2;stroke-linecap:butt;stroke-linejoin:miter;stroke:rgb(100%,0%,0%);stroke-opacity:1;stroke-miterlimit:10;" d="M 104.292969 177.25 L 98.792969 186.117188 "/>
<path style=" stroke:none;fill-rule:nonzero;fill:rgb(100%,100%,100%);fill-opacity:1;" d="M 88.703125 179.324219 L 96.703125 179.324219 L 96.703125 190.324219 L 88.703125 190.324219 Z M 88.703125 179.324219 "/>
<g style="fill:rgb(100%,0%,0%);fill-opacity:1;">
  <use xlink:href="#glyph0-2" x="88.703125" y="187.987305"/>
</g>
<path style="fill:none;stroke-width:1.2;stroke-linecap:butt;stroke-linejoin:miter;stroke:rgb(0%,0%,0%);stroke-opacity:1;stroke-miterlimit:10;" d="M 76.976562 148.03125 L 67.113281 129.632812 "/>
<path style="fill:none;stroke-width:1.2;stroke-linecap:butt;stroke-linejoin:miter;stroke:rgb(0%,0%,0%);stroke-opacity:1;stroke-miterlimit:10;" d="M 71.664062 148.511719 L 63.773438 133.796875 "/>
<path style="fill:none;stroke-width:1.2;stroke-linecap:butt;stroke-linejoin:miter;stroke:rgb(0%,0%,0%);stroke-opacity:1;stroke-miterlimit:10;" d="M 65.976562 165.769531 L 76.976562 148.03125 "/>
<path style="fill:none;stroke-width:1.2;stroke-linecap:butt;stroke-linejoin:miter;stroke:rgb(0%,0%,0%);stroke-opacity:1;stroke-miterlimit:10;" d="M 67.113281 129.632812 L 46.25 128.976562 "/>
<path style="fill:none;stroke-width:1.2;stroke-linecap:butt;stroke-linejoin:miter;stroke:rgb(0%,0%,0%);stroke-opacity:1;stroke-miterlimit:10;" d="M 46.25 128.976562 L 35.25 146.71875 "/>
<path style="fill:none;stroke-width:1.2;stroke-linecap:butt;stroke-linejoin:miter;stroke:rgb(0%,0%,0%);stroke-opacity:1;stroke-miterlimit:10;" d="M 49.324219 133.339844 L 40.523438 147.53125 "/>
<path style="fill:none;stroke-width:1.2;stroke-linecap:butt;stroke-linejoin:miter;stroke:rgb(0%,0%,0%);stroke-opacity:1;stroke-miterlimit:10;" d="M 35.25 146.71875 L 45.113281 165.113281 "/>
<path style="fill:none;stroke-width:1.2;stroke-linecap:butt;stroke-linejoin:miter;stroke:rgb(0%,0%,0%);stroke-opacity:1;stroke-miterlimit:10;" d="M 45.113281 165.113281 L 65.976562 165.769531 "/>
<path style="fill:none;stroke-width:1.2;stroke-linecap:butt;stroke-linejoin:miter;stroke:rgb(0%,0%,0%);stroke-opacity:1;stroke-miterlimit:10;" d="M 47.355469 160.273438 L 64.046875 160.796875 "/>
<path style="fill:none;stroke-width:1.2;stroke-linecap:butt;stroke-linejoin:miter;stroke:rgb(100%,0%,0%);stroke-opacity:1;stroke-miterlimit:10;" d="M 192.296875 133.574219 L 197.226562 142.769531 "/>
<path style="fill:none;stroke-width:1.2;stroke-linecap:butt;stroke-linejoin:miter;stroke:rgb(0%,0%,0%);stroke-opacity:1;stroke-miterlimit:10;" d="M 197.226562 142.769531 L 202.160156 151.96875 "/>
<path style=" stroke:none;fill-rule:nonzero;fill:rgb(100%,100%,100%);fill-opacity:1;" d="M 188.296875 128.074219 L 196.296875 128.074219 L 196.296875 139.074219 L 188.296875 139.074219 Z M 188.296875 128.074219 "/>
<g style="fill:rgb(100%,0%,0%);fill-opacity:1;">
  <use xlink:href="#glyph0-2" x="188.296875" y="136.737305"/>
</g>
<path style="fill:none;stroke-width:1.2;stroke-linecap:butt;stroke-linejoin:miter;stroke:rgb(0%,0%,0%);stroke-opacity:1;stroke-miterlimit:10;" d="M 202.160156 151.96875 L 223.023438 152.625 "/>
<path style="fill:none;stroke-width:1.2;stroke-linecap:butt;stroke-linejoin:miter;stroke:rgb(0%,0%,0%);stroke-opacity:1;stroke-miterlimit:10;" d="M 223.023438 152.625 L 232.886719 171.023438 "/>
<path style="fill:none;stroke-width:1.2;stroke-linecap:butt;stroke-linejoin:miter;stroke:rgb(0%,0%,0%);stroke-opacity:1;stroke-miterlimit:10;" d="M 228.335938 152.144531 L 236.226562 166.859375 "/>
<path style="fill:none;stroke-width:1.2;stroke-linecap:butt;stroke-linejoin:miter;stroke:rgb(0%,0%,0%);stroke-opacity:1;stroke-miterlimit:10;" d="M 234.023438 134.886719 L 223.023438 152.625 "/>
<path style="fill:none;stroke-width:1.2;stroke-linecap:butt;stroke-linejoin:miter;stroke:rgb(0%,0%,0%);stroke-opacity:1;stroke-miterlimit:10;" d="M 232.886719 171.023438 L 253.75 171.679688 "/>
<path style="fill:none;stroke-width:1.2;stroke-linecap:butt;stroke-linejoin:miter;stroke:rgb(0%,0%,0%);stroke-opacity:1;stroke-miterlimit:10;" d="M 253.75 171.679688 L 264.75 153.9375 "/>
<path style="fill:none;stroke-width:1.2;stroke-linecap:butt;stroke-linejoin:miter;stroke:rgb(0%,0%,0%);stroke-opacity:1;stroke-miterlimit:10;" d="M 250.675781 167.316406 L 259.476562 153.125 "/>
<path style="fill:none;stroke-width:1.2;stroke-linecap:butt;stroke-linejoin:miter;stroke:rgb(0%,0%,0%);stroke-opacity:1;stroke-miterlimit:10;" d="M 264.75 153.9375 L 254.886719 135.542969 "/>
<path style="fill:none;stroke-width:1.2;stroke-linecap:butt;stroke-linejoin:miter;stroke:rgb(0%,0%,0%);stroke-opacity:1;stroke-miterlimit:10;" d="M 254.886719 135.542969 L 234.023438 134.886719 "/>
<path style="fill:none;stroke-width:1.2;stroke-linecap:butt;stroke-linejoin:miter;stroke:rgb(0%,0%,0%);stroke-opacity:1;stroke-miterlimit:10;" d="M 252.644531 140.382812 L 235.953125 139.859375 "/>
</g>
</svg>

<svg xmlns="http://www.w3.org/2000/svg" xmlns:xlink="http://www.w3.org/1999/xlink" width="300pt" height="300pt" viewBox="0 0 300 300"><defs><symbol overflow="visible"><path d="M.453 1.594v-7.938h4.5v7.938zm.5-.5h3.5v-6.938h-3.5zm0 0"/></symbol><symbol overflow="visible" id="a"><path d="M.89-6.563H2.08l2.906 5.485v-5.484h.86V0H4.656L1.75-5.484V0H.89zm0 0"/></symbol><symbol overflow="visible" id="b"><path d="M3.547-5.953c-.65 0-1.164.242-1.547.72-.375.48-.563 1.13-.563 1.952 0 .835.188 1.49.563 1.967.383.48.898.72 1.547.72.644 0 1.156-.24 1.53-.72.376-.476.564-1.132.564-1.968 0-.822-.187-1.474-.562-1.954-.375-.477-.887-.72-1.53-.72zm0-.734c.914 0 1.648.312 2.203.937.55.617.828 1.438.828 2.47 0 1.042-.277 1.87-.828 2.483-.555.617-1.29.922-2.203.922-.93 0-1.668-.305-2.22-.922C.774-1.41.5-2.237.5-3.28c0-1.033.273-1.853.828-2.47.55-.625 1.29-.938 2.22-.938zm0 0"/></symbol></defs><g><path fill="#fff" d="M0 0h300v300H0z"/><path d="M138.43 186.137l-4.93-9.2" stroke-width="1.2" stroke="#000" stroke-miterlimit="10" fill="none"/><path d="M133.5 176.938l-4.934-9.196M128.566 167.742l5.5-8.87" stroke-width="1.2" stroke="#00f" stroke-miterlimit="10" fill="none"/><path d="M134.066 158.87l5.5-8.87M107.703 167.086l10.434.328" stroke-width="1.2" stroke="#000" stroke-miterlimit="10" fill="none"/><path d="M118.137 167.414l10.43.328" stroke-width="1.2" stroke="#00f" stroke-miterlimit="10" fill="none"/><path d="M125.566 162.242h7v11h-7zm0 0" fill="#fff"/><use xlink:href="#a" x="125.566" y="170.905" fill="#00f"/><path d="M139.566 150l10.434.328" stroke-width="1.2" stroke="#000" stroke-miterlimit="10" fill="none"/><path d="M150 150.328l10.434.328" stroke-width="1.2" stroke="#00f" stroke-miterlimit="10" fill="none"/><path d="M141.81 145.156l8.346.262" stroke-width="1.2" stroke="#000" stroke-miterlimit="10" fill="none"/><path d="M150.156 145.418l8.344.262" stroke-width="1.2" stroke="#00f" stroke-miterlimit="10" fill="none"/><path d="M129.703 131.602L139.566 150" stroke-width="1.2" stroke="#000" stroke-miterlimit="10" fill="none"/><path d="M160.434 150.656l5.5-8.87" stroke-width="1.2" stroke="#00f" stroke-miterlimit="10" fill="none"/><path d="M165.934 141.785l5.5-8.87" stroke-width="1.2" stroke="#000" stroke-miterlimit="10" fill="none"/><path d="M157.434 145.156h7v11h-7zm0 0" fill="#fff"/><use xlink:href="#a" x="157.434" y="153.819" fill="#00f"/><path d="M171.434 132.914l-4.934-9.195" stroke-width="1.2" stroke="#000" stroke-miterlimit="10" fill="none"/><path d="M166.5 123.72l-4.93-9.2" stroke-width="1.2" stroke="#00f" stroke-miterlimit="10" fill="none"/><path d="M166.117 133.398l-3.945-7.36" stroke-width="1.2" stroke="#000" stroke-miterlimit="10" fill="none"/><path d="M162.172 126.04l-3.945-7.36" stroke-width="1.2" stroke="#00f" stroke-miterlimit="10" fill="none"/><path d="M171.434 132.914l10.43.328" stroke-width="1.2" stroke="#000" stroke-miterlimit="10" fill="none"/><path d="M181.863 133.242l10.434.332" stroke-width="1.2" stroke="#f00" stroke-miterlimit="10" fill="none"/><path d="M161.57 114.52l-10.433-.33" stroke-width="1.2" stroke="#00f" stroke-miterlimit="10" fill="none"/><path d="M151.137 114.19l-10.434-.327" stroke-width="1.2" stroke="#000" stroke-miterlimit="10" fill="none"/><path d="M158.57 109.02h7v11h-7zm0 0" fill="#fff"/><use xlink:href="#a" x="158.57" y="117.683" fill="#00f"/><path d="M140.703 113.863l-11 17.74M143.777 118.227l-8.797 14.19M129.703 131.602l-10.43-.33" stroke-width="1.2" stroke="#000" stroke-miterlimit="10" fill="none"/><path d="M119.273 131.273l-10.433-.328M108.84 130.945l-5.5 8.87" stroke-width="1.2" stroke="#00f" stroke-miterlimit="10" fill="none"/><path d="M103.34 139.816l-5.5 8.87" stroke-width="1.2" stroke="#000" stroke-miterlimit="10" fill="none"/><path d="M111.914 135.31l-4.398 7.096" stroke-width="1.2" stroke="#00f" stroke-miterlimit="10" fill="none"/><path d="M107.516 142.406l-4.403 7.094" stroke-width="1.2" stroke="#000" stroke-miterlimit="10" fill="none"/><path d="M105.84 125.445h7v11h-7zm0 0" fill="#fff"/><use xlink:href="#a" x="105.84" y="134.108" fill="#00f"/><path d="M97.84 148.688l9.863 18.398M97.84 148.688l-20.863-.657M105.617 165.79l-5.5 8.87" stroke-width="1.2" stroke="#000" stroke-miterlimit="10" fill="none"/><path d="M100.117 174.66l-5.5 8.87" stroke-width="1.2" stroke="#f00" stroke-miterlimit="10" fill="none"/><path d="M109.793 168.38l-5.5 8.87" stroke-width="1.2" stroke="#000" stroke-miterlimit="10" fill="none"/><path d="M104.293 177.25l-5.5 8.867" stroke-width="1.2" stroke="#f00" stroke-miterlimit="10" fill="none"/><path d="M88.703 179.324h8v11h-8zm0 0" fill="#fff"/><use xlink:href="#b" x="88.703" y="187.987" fill="#f00"/><path d="M76.977 148.03l-9.864-18.397M71.664 148.512l-7.89-14.715M65.977 165.77l11-17.74M67.113 129.633l-20.863-.656M46.25 128.977l-11 17.742M49.324 133.34l-8.8 14.19M35.25 146.72l9.863 18.393M45.113 165.113l20.864.657M47.355 160.273l16.692.524" stroke-width="1.2" stroke="#000" stroke-miterlimit="10" fill="none"/><path d="M192.297 133.574l4.93 9.196" stroke-width="1.2" stroke="#f00" stroke-miterlimit="10" fill="none"/><path d="M197.227 142.77l4.933 9.2" stroke-width="1.2" stroke="#000" stroke-miterlimit="10" fill="none"/><path d="M188.297 128.074h8v11h-8zm0 0" fill="#fff"/><use xlink:href="#b" x="188.297" y="136.737" fill="#f00"/><path d="M202.16 151.97l20.863.655M223.023 152.625l9.864 18.398M228.336 152.145l7.89 14.714M234.023 134.887l-11 17.738M232.887 171.023l20.863.657M253.75 171.68l11-17.743M250.676 167.316l8.8-14.19M264.75 153.938l-9.863-18.395M254.887 135.543l-20.864-.656M252.645 140.383l-16.692-.524" stroke-width="1.2" stroke="#000" stroke-miterlimit="10" fill="none"/></g></svg>
